32x32/apps/JabRef.svg

<svg xmlns="http://www.w3.org/2000/svg" width="32" height="32" version="1">
 <rect style="opacity:0.2" width="29" height="29" x="2" y="2" rx="1.45" ry="1.45"/>
 <rect style="fill:#f4f4f7" width="29" height="29" x="2" y="1" rx="1.45" ry="1.45"/>
 <path style="opacity:0.1" transform="translate(0,1.000219)" d="m 9.2910156,4.0644531 c -0.00442,0.376685 -0.0074,0.7521142 -0.011719,1.1289063 C 11.235383,6.0010311 14.420403,7.840008 15.894531,10.511719 15.527428,6.0071362 9.302555,3.9952639 9.2910156,4.0644531 Z m 14.4179684,0 c -0.01154,-0.069189 -6.236412,1.9426831 -6.603515,6.4472659 1.474128,-2.671711 4.659148,-4.5106879 6.615234,-5.3183596 -0.0043,-0.3767921 -0.0073,-0.7522213 -0.01172,-1.1289063 z M 7.4863281,5.625 C 7.4714456,6.3377775 7.4562888,7.0508944 7.4414062,7.7636719 9.3595307,8.1509602 14.091582,9.9161223 16,13.279297 15.574984,7.5775051 7.5047696,5.5147899 7.4863281,5.625 Z m 18.0273439,0 C 25.49523,5.5147899 17.425016,7.5775051 17,13.279297 18.908526,9.9161223 23.640469,8.1509602 25.558594,7.7636719 25.543711,7.0508944 25.528554,6.3377775 25.513672,5.625 Z M 6.4394531,8.6484375 c -0.034079,1.3294827 -0.069545,2.6587985 -0.1035156,3.9882815 4.0861245,0.233594 4.3307325,2.758453 4.0839845,4.373047 L 6.203125,18.353516 6,25.800781 13.404297,22.949219 C 14.269211,22.598025 15.134978,22.260703 16,21.951172 V 16.818359 C 16,14.52569 14.823456,12.335662 12.755859,10.939453 9.9660269,9.055814 6.4528259,8.5685379 6.4394531,8.6484375 Z m 20.1210939,0 C 26.547174,8.5685379 23.033973,9.055814 20.244141,10.939453 18.176651,12.335662 17.000108,14.52569 17,16.818359 v 5.132813 c 0.865022,0.309531 1.730789,0.646853 2.595703,0.998047 L 27,25.800781 26.796875,18.353516 22.580078,17.009766 c -0.246748,-1.614594 -0.0021,-4.139453 4.083984,-4.373047 -0.03386,-1.329483 -0.06944,-2.6587988 -0.103515,-3.9882815 z"/>
 <path style="fill:#43599b" d="M 9.2910156 4.0644531 C 9.286594 4.4411381 9.2836107 4.8165673 9.2792969 5.1933594 C 11.235383 6.0010311 14.420403 7.840008 15.894531 10.511719 C 15.527428 6.0071362 9.302555 3.9952639 9.2910156 4.0644531 z M 23.708984 4.0644531 C 23.697445 3.9952639 17.472572 6.0071362 17.105469 10.511719 C 18.579597 7.840008 21.764617 6.0010311 23.720703 5.1933594 C 23.716389 4.8165673 23.713406 4.4411381 23.708984 4.0644531 z M 7.4863281 5.625 C 7.4714456 6.3377775 7.4562888 7.0508944 7.4414062 7.7636719 C 9.3595307 8.1509602 14.091582 9.9161223 16 13.279297 C 15.574984 7.5775051 7.5047696 5.5147899 7.4863281 5.625 z M 25.513672 5.625 C 25.49523 5.5147899 17.425016 7.5775051 17 13.279297 C 18.908526 9.9161223 23.640469 8.1509602 25.558594 7.7636719 C 25.543711 7.0508944 25.528554 6.3377775 25.513672 5.625 z M 6.4394531 8.6484375 C 6.4053742 9.9779202 6.3699086 11.307236 6.3359375 12.636719 C 10.422062 12.870313 10.66667 15.395172 10.419922 17.009766 L 6.203125 18.353516 L 6 25.800781 L 13.404297 22.949219 C 14.269211 22.598025 15.134978 22.260703 16 21.951172 L 16 16.818359 C 16 14.52569 14.823456 12.335662 12.755859 10.939453 C 9.9660269 9.055814 6.4528259 8.5685379 6.4394531 8.6484375 z M 26.560547 8.6484375 C 26.547174 8.5685379 23.033973 9.055814 20.244141 10.939453 C 18.176651 12.335662 17.000108 14.52569 17 16.818359 L 17 21.951172 C 17.865022 22.260703 18.730789 22.598025 19.595703 22.949219 L 27 25.800781 L 26.796875 18.353516 L 22.580078 17.009766 C 22.33333 15.395172 22.577938 12.870313 26.664062 12.636719 C 26.630199 11.307236 26.594626 9.9779202 26.560547 8.6484375 z"/>
 <path style="fill:#f4f4f7;opacity:0.2" d="M 3.4492188 1 C 2.6459187 1 2 1.6459187 2 2.4492188 L 2 3.4492188 C 2 2.6459187 2.6459187 2 3.4492188 2 L 29.550781 2 C 30.354081 2 31 2.6459187 31 3.4492188 L 31 2.4492188 C 31 1.6459187 30.354081 1 29.550781 1 L 3.4492188 1 z"/>
</svg>

<svg xmlns="http://www.w3.org/2000/svg" width="32" height="32" version="1"><rect style="opacity:.2" width="29" height="29" x="2" y="2" rx="1.45" ry="1.45"/><rect style="fill:#f4f4f7" width="29" height="29" x="2" y="1" rx="1.45" ry="1.45"/><path style="opacity:.1" transform="translate(0 1)" d="m9.291 4.064-.012 1.13c1.956.807 5.141 2.646 6.616 5.318-.368-4.505-6.592-6.517-6.604-6.448zm14.418 0c-.012-.069-6.236 1.943-6.604 6.448C18.58 7.84 21.765 6 23.721 5.193c-.005-.376-.008-.752-.012-1.129zM7.486 5.625l-.045 2.139c1.919.387 6.65 2.152 8.559 5.515-.425-5.701-8.495-7.764-8.514-7.654zm18.028 0c-.019-.11-8.089 1.953-8.514 7.654 1.909-3.363 6.64-5.128 8.559-5.515l-.045-2.139zM6.439 8.648c-.034 1.33-.07 2.66-.103 3.989 4.086.233 4.33 2.758 4.084 4.373l-4.217 1.344L6 25.8l7.404-2.852c.865-.351 1.731-.688 2.596-.998v-5.133c0-2.292-1.177-4.482-3.244-5.879-2.79-1.883-6.303-2.37-6.317-2.29zm20.122 0c-.014-.08-3.527.408-6.317 2.291C18.177 12.336 17 14.526 17 16.82v5.132c.865.31 1.73.647 2.596.998L27 25.801l-.203-7.447-4.217-1.344c-.247-1.615-.002-4.14 4.084-4.373-.034-1.33-.07-2.66-.103-3.989z"/><path style="fill:#43599b" d="m9.291 4.064-.012 1.13c1.956.807 5.141 2.646 6.616 5.318-.368-4.505-6.592-6.517-6.604-6.448zm14.418 0c-.012-.069-6.236 1.943-6.604 6.448C18.58 7.84 21.765 6 23.721 5.193c-.005-.376-.008-.752-.012-1.129zM7.486 5.625l-.045 2.139c1.919.387 6.65 2.152 8.559 5.515-.425-5.701-8.495-7.764-8.514-7.654zm18.028 0c-.019-.11-8.089 1.953-8.514 7.654 1.909-3.363 6.64-5.128 8.559-5.515l-.045-2.139zM6.439 8.648c-.034 1.33-.07 2.66-.103 3.989 4.086.233 4.33 2.758 4.084 4.373l-4.217 1.344L6 25.8l7.404-2.852c.865-.351 1.731-.688 2.596-.998v-5.133c0-2.292-1.177-4.482-3.244-5.879-2.79-1.883-6.303-2.37-6.317-2.29zm20.122 0c-.014-.08-3.527.408-6.317 2.291C18.177 12.336 17 14.526 17 16.82v5.132c.865.31 1.73.647 2.596.998L27 25.801l-.203-7.447-4.217-1.344c-.247-1.615-.002-4.14 4.084-4.373-.034-1.33-.07-2.66-.103-3.989z"/><path style="fill:#f4f4f7;opacity:.2" d="M3.45 1C2.645 1 2 1.646 2 2.45v1C2 2.645 2.646 2 3.45 2h26.1c.804 0 1.45.646 1.45 1.45v-1C31 1.645 30.354 1 29.55 1H3.45z"/></svg>
